tenants/donaldduck/icons/eye.svg

<svg fill="none" height="24" viewBox="0 0 24 24" width="24" xmlns="http://www.w3.org/2000/svg"><g fill="#000"><path d="m15.125 12c0 .8288-.3292 1.6237-.9153 2.2097-.586.5861-1.3809.9153-2.2097.9153s-1.6237-.3292-2.20971-.9153c-.58605-.586-.91529-1.3809-.91529-2.2097s.32924-1.6237.91529-2.20971c.58601-.58605 1.38091-.91529 2.20971-.91529s1.6237.32924 2.2097.91529c.5861.58601.9153 1.38091.9153 2.20971z"/><path d="m2 12s3.75-6.875 10-6.875 10 6.875 10 6.875-3.75 6.875-10 6.875-10-6.875-10-6.875zm10 4.375c1.1603 0 2.2731-.4609 3.0936-1.2814s1.2814-1.9333 1.2814-3.0936-.4609-2.27312-1.2814-3.09359-1.9333-1.28141-3.0936-1.28141-2.27312.46094-3.09359 1.28141-1.28141 1.93329-1.28141 3.09359.46094 2.2731 1.28141 3.0936 1.93329 1.2814 3.09359 1.2814z"/></g></svg>

<svg width="24" height="24" viewBox="0 0 24 24" fill="none" xmlns="http://www.w3.org/2000/svg">
<path d="M15.125 12C15.125 12.8288 14.7958 13.6237 14.2097 14.2097C13.6237 14.7958 12.8288 15.125 12 15.125C11.1712 15.125 10.3763 14.7958 9.79029 14.2097C9.20424 13.6237 8.875 12.8288 8.875 12C8.875 11.1712 9.20424 10.3763 9.79029 9.79029C10.3763 9.20424 11.1712 8.875 12 8.875C12.8288 8.875 13.6237 9.20424 14.2097 9.79029C14.7958 10.3763 15.125 11.1712 15.125 12Z" fill="black"/>
<path d="M2 12C2 12 5.75 5.125 12 5.125C18.25 5.125 22 12 22 12C22 12 18.25 18.875 12 18.875C5.75 18.875 2 12 2 12ZM12 16.375C13.1603 16.375 14.2731 15.9141 15.0936 15.0936C15.9141 14.2731 16.375 13.1603 16.375 12C16.375 10.8397 15.9141 9.72688 15.0936 8.90641C14.2731 8.08594 13.1603 7.625 12 7.625C10.8397 7.625 9.72688 8.08594 8.90641 8.90641C8.08594 9.72688 7.625 10.8397 7.625 12C7.625 13.1603 8.08594 14.2731 8.90641 15.0936C9.72688 15.9141 10.8397 16.375 12 16.375Z" fill="black"/>
</svg>
